X:11086
T:"Paddy Ryan's Dream"   (1st setting)  (reel)  1181
C:after McNamara
B:O'Neill's Music Of Ireland (The 1850) Lyon & Healy, Chicago, 1903 edition
Z:FROM O'NEILL'S TO NOTEWORTHY, FROM NOTEWORTHY TO ABC, MIDI AND .TXT BY VINCE
BRENNAN July 2003 (HTTP://WWW.SOSYOURMOM.COM)fs
I:abc2nwc
M:C|
L:1/8
K:C
A3/2E/2  (3(.E.E.E) cABG|EGDC B,CDB,| (3(.A,.A,.A,) A,B, CDEG|[1cAB^G ABcB:|[2cAB^G  (3(.A.A.A) A2"^Fine"||
Aaa^g aecA|Agg^f gdBG|Aaa^g ae^fd|edcB  (3(cBA) BG|
Aaa^g aecA|Agg^f gdBG|AcBd cedf|edcB ABc"^D. C. al Fine"B|]
